img/image/wa-icon.svg

<svg width="44" height="43" viewBox="0 0 44 43" fill="none" xmlns="http://www.w3.org/2000/svg">
<rect x="1" y="1" width="42" height="41" rx="20.5" fill="#40BF4F"/>
<g clip-path="url(#clip0_17234_623)">
<path fill-rule="evenodd" clip-rule="evenodd" d="M29.6503 13.2698C27.5453 11.1624 24.7459 10.0012 21.7635 10C15.618 10 10.6165 15.0014 10.614 21.1485C10.6132 23.1136 11.1265 25.0318 12.1023 26.7226L10.5205 32.5L16.431 30.9496C18.0596 31.8379 19.8931 32.3061 21.759 32.3066H21.7636C27.9084 32.3066 32.9105 27.3048 32.9128 21.1574C32.9141 18.1782 31.7554 15.3771 29.6503 13.2698ZM21.7635 30.4237H21.7597C20.0969 30.423 18.4661 29.9762 17.0431 29.132L16.7048 28.9311L13.1975 29.8512L14.1336 26.4316L13.9132 26.081C12.9856 24.6055 12.4957 22.9001 12.4965 21.1492C12.4985 16.0399 16.6557 11.8831 21.7672 11.8831C24.2424 11.8839 26.5692 12.849 28.3188 14.6007C30.0683 16.3523 31.0313 18.6806 31.0305 21.1568C31.0283 26.2665 26.8713 30.4237 21.7635 30.4237ZM26.8466 23.4832C26.5681 23.3437 25.1984 22.67 24.9429 22.5769C24.6878 22.4839 24.5018 22.4376 24.3163 22.7164C24.1305 22.9952 23.5967 23.6228 23.4341 23.8086C23.2715 23.9945 23.1092 24.0179 22.8306 23.8783C22.5519 23.739 21.6543 23.4447 20.5902 22.4956C19.7621 21.7569 19.203 20.8446 19.0404 20.5658C18.8781 20.2868 19.039 20.1505 19.1626 19.9973C19.4642 19.6228 19.7662 19.2302 19.859 19.0444C19.952 18.8584 19.9054 18.6957 19.8357 18.5563C19.7662 18.4169 19.209 17.0457 18.977 16.4877C18.7506 15.9447 18.5212 16.018 18.3501 16.0095C18.1877 16.0014 18.0019 15.9998 17.8161 15.9998C17.6304 15.9998 17.3286 16.0694 17.0732 16.3484C16.8179 16.6274 16.0983 17.3012 16.0983 18.6725C16.0983 20.0437 17.0965 21.3684 17.2358 21.5543C17.375 21.7403 19.2003 24.5541 21.9948 25.7607C22.6594 26.048 23.1783 26.2193 23.583 26.3477C24.2504 26.5597 24.8575 26.5298 25.3376 26.4581C25.8729 26.378 26.9857 25.7841 27.2181 25.1334C27.4502 24.4826 27.4502 23.9249 27.3804 23.8086C27.3109 23.6924 27.1251 23.6228 26.8466 23.4832Z" fill="white"/>
</g>
<rect x="1" y="1" width="42" height="41" rx="20.5" stroke="white" stroke-width="2"/>
<defs>
<clipPath id="clip0_17234_623">
<rect width="23" height="23" fill="white" transform="translate(10.5 10)"/>
</clipPath>
</defs>
</svg>

<svg width="44" height="43" fill="none" xmlns="http://www.w3.org/2000/svg"><rect x="1" y="1" width="42" height="41" rx="20.5" fill="#40BF4F"/><g clip-path="url(#a)"><path fill-rule="evenodd" clip-rule="evenodd" d="M29.65 13.27A11.077 11.077 0 0 0 21.764 10c-6.146 0-11.147 5.001-11.15 11.148 0 1.966.512 3.884 1.488 5.575L10.52 32.5l5.911-1.55a11.138 11.138 0 0 0 5.328 1.357h.005c6.144 0 11.146-5.002 11.149-11.15a11.08 11.08 0 0 0-3.263-7.887Zm-7.886 17.154h-.004a9.255 9.255 0 0 1-4.717-1.292l-.338-.2-3.507.92.936-3.42-.22-.351a9.245 9.245 0 0 1-1.418-4.932c.002-5.11 4.16-9.266 9.271-9.266 2.475 0 4.802.966 6.552 2.718a9.212 9.212 0 0 1 2.712 6.556c-.003 5.11-4.16 9.267-9.267 9.267Zm5.083-6.94c-.279-.14-1.649-.814-1.904-.907-.255-.093-.441-.14-.627.14-.185.278-.72.906-.882 1.092-.163.185-.325.209-.603.07-.28-.14-1.177-.434-2.24-1.383-.829-.74-1.388-1.651-1.55-1.93-.163-.28-.002-.415.122-.569.301-.374.603-.767.696-.953.093-.186.046-.348-.023-.488-.07-.14-.627-1.51-.859-2.068-.226-.543-.456-.47-.627-.479-.162-.008-.348-.01-.534-.01-.186 0-.487.07-.743.35-.255.278-.975.952-.975 2.323 0 1.372.998 2.696 1.138 2.882.139.186 1.964 3 4.759 4.207a15.94 15.94 0 0 0 1.588.587c.667.212 1.275.182 1.755.11.535-.08 1.648-.674 1.88-1.325.232-.65.232-1.208.162-1.324-.07-.117-.255-.186-.533-.326Z" fill="#fff"/></g><rect x="1" y="1" width="42" height="41" rx="20.5" stroke="#fff" stroke-width="2"/><defs><clipPath id="a"><path fill="#fff" transform="translate(10.5 10)" d="M0 0h23v23H0z"/></clipPath></defs></svg>
